X:092 
T:Jenny Tie Your Bonnet (reel)  
T:Tie the Bonnet
B:CRE3.096 (Cuir Snaidhm ar do ChaipÃÂÃÂÃÂÃÂ­n, a ShinÃÂÃÂÃÂÃÂ©ad)
F:file ID: cre.3/092jenny_t
N:B part is occasionally played with C sharp replacing the C natural. 
I've added a second version of the B part with that change (which I 
personally prefer, but I'll leave it up to you!)
R:reel
Q:180
M:C
L:1/8
K:Am
A3g ^fdec|A3c BGG2|A3g ^fdef|g^fgd BGG2|
A3g ^fdec|(3AcA Ac BGG2|A3g ^fdef|g^fgd BGG2||
(3e^fg af gfed|cAeA cAA2|(3e^fg af gfef|g3d BGG2|
(3e^fg af (3gfe fd|cAeA cAA2|(3e^fg af gbaf|g^fge dGBG||

%%%

